X: 20452
T: OH NO, MY LOVE, NO.
T: "WHEN I HANG ON THY BOSOM DISTRACTED TO LEAVE THEE."
C: Michael Kelly.
Q: "Moderate."
%R: air, march, reel
B: W. Hamilton "Universal Tune-Book" Vol. 2 Glasgow 1846 p.45 #2
S: http://s3-eu-west-1.amazonaws.com/itma.dl.printmaterial/book_pdfs/hamiltonvol2web.pdf
Z: 2016 John Chambers <jc:trillian.mit.edu>
M: 2/4
L: 1/8
K: D
% - - - - - - - - - - - - - - - - - - - - - - - - -
AA |\
A2 dd | f2 fe | dc(dB) | A2 FF |\
F2 GA | B2 (cd) | (e>f)ed | c2 zA |\
A2 dd | f2fe | dcdB | AF FA |\
AGFE | FHA zd | d//e//f3/ e>d | d2 zd |\
f2 ed | f2 ed |
ea aa | ea za |\
f2 ed | f2 ed | c2 dB | A2 HzA |\
f2 fe | {e}d2 dc | cBed | dcBA |\
d2 dc | c HB2 A | A>BAF | E2 AA |\
Ad dc | B He2 e | d>d c2 | d2 |]
% - - - - - - - - - - - - - - - - - - - - - - - - -

%%sep 1 1 500
%%sep 1 1 500

